src/main/resources/icons/UIDesignerIcons/com/intellij/uiDesigner/icons/label.svg

<svg xmlns="http://www.w3.org/2000/svg" width="17" height="16" viewBox="0 0 17 16">
  <path fill="#9AA7B0" fill-opacity=".8" fill-rule="evenodd" d="M6.84134615 9.90453297L3.35508242 9.90453297 2.62568681 12 1 12 4.39972527 3 5.80288462 3 9.20879121 12 7.57692308 12 6.84134615 9.90453297zM3.79395604 8.64354396L6.40247253 8.64354396 5.09821429 4.91002747 3.79395604 8.64354396zM15.7376434 8.82586243C15.7376434 9.84052445 15.5111598 10.6478129 15.0581857 11.2477519 14.6052116 11.847691 13.9821298 12.147656 13.1889218 12.147656 12.4238989 12.147656 11.8279952 11.8718492 11.4011929 11.3202274L11.3287174 12.0268635 10 12.0268635 10 2.75 11.4676288 2.75 11.4676288 6.12011057C11.8904046 5.62083243 12.4601369 5.37119711 13.1768426 5.37119711 13.974077 5.37119711 14.6001785 5.66713576 15.0551659 6.25902194 15.5101532 6.85090812 15.7376434 7.67832842 15.7376434 8.74130768L15.7376434 8.82586243zM14.2743143 8.69801584C14.2743143 7.989363 14.1494967 7.45788134 13.8998576 7.10355493 13.6502185 6.74922851 13.2878447 6.57206795 12.8127252 6.57206795 12.1765482 6.57206795 11.7296204 6.84988791 11.4719285 7.40553616L11.4719285 10.0992088C11.7336469 10.6669363 12.184601 10.9507958 12.8248044 10.9507958 13.2838182 10.9507958 13.6381393 10.7796749 13.8877784 10.4374277 14.1374174 10.0951806 14.2662615 9.5777913 14.2743143 8.88524421L14.2743143 8.69801584z"/>
</svg>

<svg xmlns="http://www.w3.org/2000/svg" width="17" height="16" viewBox="0 0 17 16"><rect id="frame" width="17" height="16" fill="none"/><path fill="#9AA7B0" fill-opacity=".8" fill-rule="evenodd" d="M6.841 9.905H3.355L2.625 12H1l3.4-9h1.403l3.406 9H7.577L6.84 9.905zM3.794 8.644h2.608L5.098 4.91 3.794 8.644zm11.944.182c0 1.015-.227 1.822-.68 2.422-.453.6-1.076.9-1.87.9-.764 0-1.36-.276-1.787-.828l-.072.707H10V2.75h1.468v3.37c.422-.5.992-.749 1.709-.749.797 0 1.423.296 1.878.888.455.592.683 1.42.683 2.482v.085zm-1.464-.128c0-.709-.125-1.24-.374-1.594-.25-.355-.612-.532-1.087-.532-.636 0-1.083.278-1.341.834v2.693c.262.568.713.852 1.353.852.459 0 .813-.171 1.063-.514.25-.342.378-.86.386-1.552v-.187z"/></svg>
